images_sukapura_svg/cmd/sc_showannotations.svg

<svg viewBox="0 0 16 16" xmlns="http://www.w3.org/2000/svg" xmlns:xlink="http://www.w3.org/1999/xlink"><linearGradient id="a" gradientUnits="userSpaceOnUse" x1="10" x2="10" y1="16" y2="2"><stop offset="0" stop-color="#f5f5f5"/><stop offset=".3888889" stop-color="#fdfdfd"/><stop offset="1" stop-color="#fff"/></linearGradient><path d="m2 .5c-.831 0-1.5.669-1.5 1.5v8c0 .831.669 1.5 1.5 1.5h1.5v4l4.5-4h6c.831 0 1.5-.669 1.5-1.5v-8c0-.831-.669-1.5-1.5-1.5z" fill="url(#a)" stroke="#98989d"/></svg>

<?xml version="1.0" encoding="UTF-8" standalone="no"?>
<svg
   xmlns:dc="http://purl.org/dc/elements/1.1/"
   xmlns:cc="http://creativecommons.org/ns#"
   xmlns:rdf="http://www.w3.org/1999/02/22-rdf-syntax-ns#"
   xmlns:svg="http://www.w3.org/2000/svg"
   xmlns="http://www.w3.org/2000/svg"
   xmlns:xlink="http://www.w3.org/1999/xlink"
   xmlns:sodipodi="http://sodipodi.sourceforge.net/DTD/sodipodi-0.dtd"
   xmlns:inkscape="http://www.inkscape.org/namespaces/inkscape"
   viewBox="0 0 16 16"
   version="1.1"
   id="svg6"
   sodipodi:docname="sc_showannotations.svg"
   inkscape:version="0.92.3 (2405546, 2018-03-11)">
  <metadata
     id="metadata12">
    <rdf:RDF>
      <cc:Work
         rdf:about="">
        <dc:format>image/svg+xml</dc:format>
        <dc:type
           rdf:resource="http://purl.org/dc/dcmitype/StillImage" />
        <dc:title></dc:title>
      </cc:Work>
    </rdf:RDF>
  </metadata>
  <defs
     id="defs10">
    <linearGradient
       inkscape:collect="always"
       id="linearGradient883">
      <stop
         style="stop-color:#f5f5f5;stop-opacity:1;"
         offset="0"
         id="stop879" />
      <stop
         id="stop887"
         offset="0.3888889"
         style="stop-color:#fdfdfd;stop-opacity:1" />
      <stop
         style="stop-color:#ffffff;stop-opacity:1"
         offset="1"
         id="stop881" />
    </linearGradient>
    <linearGradient
       inkscape:collect="always"
       xlink:href="#linearGradient883"
       id="linearGradient853"
       x1="10"
       y1="16"
       x2="10"
       y2="2"
       gradientUnits="userSpaceOnUse" />
  </defs>
  <sodipodi:namedview
     pagecolor="#ffffff"
     bordercolor="#666666"
     borderopacity="1"
     objecttolerance="10"
     gridtolerance="10"
     guidetolerance="10"
     inkscape:pageopacity="0"
     inkscape:pageshadow="2"
     inkscape:window-width="1366"
     inkscape:window-height="692"
     id="namedview8"
     showgrid="true"
     inkscape:zoom="7.375"
     inkscape:cx="5.4109502"
     inkscape:cy="0.092898619"
     inkscape:window-x="0"
     inkscape:window-y="0"
     inkscape:window-maximized="1"
     inkscape:current-layer="svg6">
    <inkscape:grid
       type="xygrid"
       id="grid822"
       spacingx="0.5"
       spacingy="0.5"
       empspacing="2" />
  </sodipodi:namedview>
  <path
     style="fill:url(#linearGradient853);stroke:#98989d;stroke-opacity:1;fill-opacity:1"
     d="M 2 0.5 C 1.169 0.5 0.5 1.169 0.5 2 L 0.5 10 C 0.5 10.831 1.169 11.5 2 11.5 L 3.5 11.5 L 3.5 15.5 L 8 11.5 L 14 11.5 C 14.831 11.5 15.5 10.831 15.5 10 L 15.5 2 C 15.5 1.169 14.831 0.5 14 0.5 L 2 0.5 z "
     id="path2" />
</svg>
